icon_installer/data/icons/scalable/actions/show-bus-symbolic.svg

<?xml version="1.0" encoding="UTF-8"?>
<svg height="16px" viewBox="0 0 16 16" width="16px" xmlns="http://www.w3.org/2000/svg">
    <path d="m 4.445312 13.988281 c -0.269531 0 -0.496093 -0.226562 -0.496093 -0.492187 c 0 -0.269532 0.226562 -0.496094 0.496093 -0.496094 c 0.265626 0 0.492188 0.226562 0.492188 0.496094 c 0 0.265625 -0.226562 0.492187 -0.492188 0.492187 z m 0 -2.988281 c -1.382812 0 -2.496093 1.113281 -2.496093 2.496094 c 0 1.378906 1.113281 2.492187 2.496093 2.492187 c 1.378907 0 2.492188 -1.113281 2.492188 -2.492187 c 0 -1.382813 -1.113281 -2.496094 -2.492188 -2.496094 z m 0 0"/>
    <path d="m 10.027344 12.496094 h -4.015625 c -0.550781 0 -1 0.445312 -1 1 c 0 0.550781 0.449219 1 1 1 h 4.015625 c 0.550781 0 1 -0.449219 1 -1 c 0 -0.554688 -0.449219 -1 -1 -1 z m -7.304688 0 c -0.402344 0 -0.734375 -0.335938 -0.734375 -0.738282 v -4.371093 c 0 -0.203125 0.175781 -0.378907 0.382813 -0.378907 h 11.25 c 0.203125 0 0.378906 0.175782 0.378906 0.378907 v 4.148437 c 0 0.523438 -0.433594 0.960938 -0.957031 0.960938 c -0.550781 0 -1 0.449218 -1 1 c 0 0.550781 0.449219 1 1 1 c 1.640625 -0.003906 2.960937 -1.324219 2.957031 -2.960938 v -4.148437 c 0 -1.320313 -1.058594 -2.378907 -2.378906 -2.378907 h -11.25 c -1.320313 0 -2.3828128 1.058594 -2.3828128 2.378907 v 4.367187 c 0 1.515625 1.2148438 2.738282 2.7304688 2.742188 c 0.550781 0 1 -0.445313 1 -1 c 0.003906 -0.550782 -0.445312 -1 -0.996094 -1 z m 0 0"/>
    <path d="m 11.515625 13.988281 c -0.265625 0 -0.492187 -0.226562 -0.492187 -0.492187 c 0 -0.269532 0.226562 -0.496094 0.492187 -0.496094 c 0.269531 0 0.496094 0.226562 0.496094 0.496094 c 0 0.265625 -0.226563 0.492187 -0.496094 0.492187 z m 0 -2.988281 c -1.382813 0 -2.492187 1.113281 -2.492187 2.496094 c 0 1.378906 1.109374 2.492187 2.492187 2.492187 s 2.496094 -1.113281 2.496094 -2.492187 c 0 -1.382813 -1.113281 -2.496094 -2.496094 -2.496094 z m 0 0"/>
    <path d="m 2 9.96875 v -7.109375 c 0 -0.46875 0.390625 -0.859375 0.859375 -0.859375 h 8.59375 c 0.679687 0 1.292969 0.4375 1.511719 1.082031 l 0.507812 1.488281 c 0.363282 1.0625 0.546875 2.175782 0.546875 3.296876 v 1.054687 c 0 0.554687 0.449219 1 1 1 c 0.554688 0 1 -0.445313 1 -1 v -1.054687 c 0 -1.34375 -0.21875 -2.671876 -0.652343 -3.941407 l -0.507813 -1.488281 c -0.5 -1.460938 -1.863281 -2.4375 -3.40625 -2.4375 h -8.59375 c -1.585937 0 -2.859375 1.273438 -2.859375 2.859375 v 7.109375 c 0 0.550781 0.449219 1 1 1 s 1 -0.449219 1 -1 z m 0 0"/>
    <path d="m 3.886719 1 h 1.125 v 5 h -1.125 z m 0 0"/>
    <path d="m 6.875 1 h 1.125 v 5 h -1.125 z m 0 0"/>
    <path d="m 9.875 1 h 1.125 v 5 h -1.125 z m 0 0"/>
</svg>

<svg xmlns="http://www.w3.org/2000/svg" width="16" height="16"><path d="M4.445 13.988a.501.501 0 0 1-.496-.492c0-.27.227-.496.496-.496.266 0 .493.227.493.496a.5.5 0 0 1-.493.492zm0-2.988a2.49 2.49 0 0 0-2.496 2.496 2.49 2.49 0 0 0 2.496 2.492 2.489 2.489 0 0 0 2.493-2.492A2.49 2.49 0 0 0 4.444 11zm0 0"/><path d="M10.027 12.496H6.012a1 1 0 1 0 0 2h4.015a1 1 0 1 0 0-2zm-7.304 0a.742.742 0 0 1-.735-.738V7.387c0-.203.176-.38.383-.38h11.25c.203 0 .379.177.379.38v4.148a.967.967 0 0 1-.957.961c-.55 0-1 .45-1 1s.45 1 1 1A2.953 2.953 0 0 0 16 11.536v-4.15a2.37 2.37 0 0 0-2.379-2.378H2.371A2.374 2.374 0 0 0-.012 7.387v4.367a2.733 2.733 0 0 0 2.73 2.742 1 1 0 0 0 .005-2zm0 0"/><path d="M11.516 13.988a.5.5 0 0 1-.493-.492c0-.27.227-.496.493-.496.27 0 .496.227.496.496a.501.501 0 0 1-.496.492zm0-2.988a2.487 2.487 0 0 0-2.493 2.496c0 1.379 1.11 2.492 2.493 2.492s2.496-1.113 2.496-2.492A2.49 2.49 0 0 0 11.516 11zM2 9.969v-7.11C2 2.391 2.39 2 2.86 2h8.593c.68 0 1.293.438 1.512 1.082l.508 1.488c.363 1.063.547 2.176.547 3.297v1.055a1 1 0 1 0 2 0V7.867c0-1.344-.22-2.672-.653-3.941l-.508-1.488A3.594 3.594 0 0 0 11.453 0H2.86A2.85 2.85 0 0 0 0 2.86v7.109c0 .55.45 1 1 1s1-.45 1-1zm0 0"/><path d="M3.887 1h1.125v5H3.887zm2.988 0H8v5H6.875zm3 0H11v5H9.875zm0 0"/></svg>
